X: 18884
T: In Sheridan's Guesthouse
R: reel
M: 4/4
K: Dmajor
|DFAF EGBG|ADFA ~F3E|DFAF EFGB|AzGE FAEF|
DFAF EGGz|A3F GFEF|EDAF EFGB|AFGE FED2||
BAB/c/d cAAF|G3A EDD2|BAB/c/d cAAA|ffed ecBA|
B3d cAAF|G3A F/E/DEF|DFAF EFGz|AFGE FED2||
DFAF EGBG|ADFA ~F3E|DFAF EFGB|AzGE FAEF|
DFAF EGGz|A3F GFEF|EDAF EFGB|AFGE FED2||
BAB/c/d cAAF|G3A EDD2|BAB/c/d cAaz|zaf/e/d ecBA|
B3d cAAF|G3A F/E/DEF|DFAF EFGz|AFGE FED2||

